X:7483
T:The Women of Monaghan
O:england
R:jig
C:Ed Reavy
M:6/8
L:1/8
N:For the Hamill women and the
N:other lovely people that Ed
N:knew as a child in neighboring Monaghan.
K:G
B/2A/2|GEF GAB|g2 B f2 B|efg fdf|e^ce dBA|
GEF GAB|g2 B f2 B|edc BcA|1G3 GBA:|2G3 G2 f||
gfe fga|f2 d def|gfe fga|b2 e e2 f|gfe def|
agf g2 f|edB cBA|G3 G2 f||gfe fga|f2 d def|
gfe fga|b2 e e2 f|gfe def|agf gfe|dcB cBA|G3 GBA:||


